svgs/duotone/nfc-symbol.svg

<svg xmlns="http://www.w3.org/2000/svg" viewBox="0 0 512 512"><!--! Font Awesome Pro 6.1.1 by @fontawesome - https://fontawesome.com License - https://fontawesome.com/license (Commercial License) Copyright 2022 Fonticons, Inc. --><defs><style>.fa-secondary{opacity:.4}</style></defs><path class="fa-primary" d="M125.7 36.32C137.7 29.38 152.8 30.95 163.1 40.2L341.4 200.2C354.5 211.1 355.6 232.2 343.8 245.4C332 258.5 311.8 259.6 298.6 247.8L138.8 104.4C93.49 138.8 64 194.6 64 256C64 325.7 101.9 388 157.7 420.3C173 429.2 178.3 448.7 169.4 464C160.6 479.3 140.1 484.6 125.7 475.7C50.35 432.1 0 348.8 0 256C0 163.2 50.35 79.9 125.7 36.32V36.32z"/><path class="fa-secondary" d="M386.3 475.7C374.3 482.6 359.2 481.1 348.9 471.8L170.6 311.8C157.5 300 156.4 279.8 168.2 266.6C179.1 253.5 200.2 252.4 213.4 264.2L373.2 407.7C418.5 373.2 447.1 317.4 447.1 256C447.1 186.4 410.1 124 354.3 91.7C338.1 82.86 333.7 63.28 342.6 47.98C351.4 32.68 371 27.46 386.3 36.31C461.6 79.89 511.1 163.2 511.1 256C511.1 348.8 461.6 432.1 386.3 475.7L386.3 475.7z"/></svg>

<svg xmlns="http://www.w3.org/2000/svg" viewBox="0 0 512 512"><!--! Font Awesome Pro 6.4.2 by @fontawesome - https://fontawesome.com License - https://fontawesome.com/license (Commercial License) Copyright 2023 Fonticons, Inc. --><path class="fa-primary" style="fill:var(--fa-primary-color,inherit);opacity:var(--fa-primary-opacity,1);" d="M125.7 36.3c12-6.9 27.1-5.4 37.4 3.9l178.3 160c13.2 11.8 14.2 32 2.4 45.2s-32 14.2-45.2 2.4L138.8 104.4C93.5 138.8 64 194.6 64 256c0 69.6 37.9 132 93.7 164.3c15.3 8.8 20.5 28.4 11.7 43.7s-28.4 20.5-43.7 11.7C50.3 432.1 0 348.8 0 256S50.3 79.9 125.7 36.3z"/><path class="fa-secondary" style="fill:var(--fa-secondary-color,inherit);opacity:var(--fa-secondary-opacity,.4);" d="M386.3 475.7c-12 6.9-27.1 5.4-37.4-3.9l-178.3-160c-13.2-11.8-14.2-32-2.4-45.2s32-14.2 45.2-2.4L373.2 407.7C418.5 373.2 448 317.4 448 256c0-69.6-37.9-132-93.7-164.3C339 82.9 333.7 63.3 342.6 48s28.4-20.5 43.7-11.7C461.6 79.9 512 163.2 512 256s-50.3 176.1-125.7 219.7z"/></svg>
